!!!OTL: DAS LAUB FAELLT VON DEN BAEUMEN
!!!ARE: Europa, Mitteleuropa, Deutschland
!!!SCT: F1116
!!!YEM: Copyright 1995, estate of Helmut Schaffrath.
**kern
*ICvox
*Ivox
*M6/8
*k[b-]
*F:
{8c
=1
4a
8a
8a
8b-
8cc
=2
4cc
8b-
4r}
{8b-
=3
4a
8ff
8ff
8cc
8a
=4
4.g
4r}
{8c
=5
8g
8g
8g#
4a
8a
=6
4cc
8b-
4r}
{8b-
=7
4a
8a
4b-
8cc
=8
4dd
8ee
8ff
8r}
{8dd
=9
8cc
8a
8f
8.g
16a
8g
=10
4f
4.r}
==
!!!AGN: Natur -, Jahreszeiten - Lied, Herbst
!!!ONB: ESAC (Essen Associative Code) Database: FINK
!!!AMT: compound duple
!!!AIN: vox
!!!EED: Helmut Schaffrath
!!!EEV: 1.0
*-
